X:1
T:Buxtehude - Aria:  La Capricciosa in G Minor.
%%score { ( 1 2 ) | ( 3 4 ) }
L:1/8
Q:1/4=180
M:12/8
K:G
V:1 treble nm="Harpsichord" snm="Hch."
V:2 treble 
V:3 bass 
V:4 bass 
V:1
"^Partita 9"!f! def gdg Pe3 e3 | ABc dAd PBcd MBAG | B3 B3 GAB cGc | F3 MF3 G6 :: z6 Pe=fg cd_B | %5
 A3 AB=c MB3 G3 | Bcd GA=F E^FG ABc | FGA DPEC G6 :| %8
V:2
 B3 B3 GAB cGc | F3 PF3 G6 | DEF GDG E3 E3 | x12 :: Bcd GA=F E6 | E^FG F3 G3 x3 | x12 | %7
 D2 C B,2 A, [B,D]6 :| %8
V:3
 x12 | x12 | x12 | A,B,C DA,D B,CD B,A,G, :: z3 B,3 C6 | ^C3 D3 G,A,B, =CB,A, | %6
 G,2 =F, E,2 D, C,2 B,, C,2 A,, | x3 F,3 z B,,PD, G,3 :| %8
V:4
 x12 | x12 | x12 | x12 :: x12 | x12 | x12 | D,6 G,,6 :| %8

